sliced-svg/output/0096-sitelen.svg

<?xml version="1.0" encoding="UTF-8"?><svg xmlns="http://www.w3.org/2000/svg" xmlns:xlink="http://www.w3.org/1999/xlink" width="1000px" height="1000px" version="1.1"><g id="surface1"><path style="fill:none;stroke-width:1;stroke-linecap:round;stroke-linejoin:round;stroke:rgb(0%,0%,0%);stroke-opacity:1;stroke-miterlimit:4" d="M 126 185.000078 L 134 185.000078 L 134 195.000078 L 126 195.000078 Z M 126 185.000078 " transform="matrix(50,0,0,50,-6000,-9000)"/><path style="stroke:none;fill-rule:nonzero;fill:rgb(0%,0%,0%);fill-opacity:1" d="M550 500C550 527.613281 527.613281 550 500 550 472.386719 550 450 527.613281 450 500 450 472.386719 472.386719 450 500 450 527.613281 450 550 472.386719 550 500zM437.5 500C437.5 527.613281 415.113281 550 387.5 550 359.886719 550 337.5 527.613281 337.5 500 337.5 472.386719 359.886719 450 387.5 450 415.113281 450 437.5 472.386719 437.5 500zM662.5 500C662.5 527.613281 640.113281 550 612.5 550 584.886719 550 562.5 527.613281 562.5 500 562.5 472.386719 584.886719 450 612.5 450 640.113281 450 662.5 472.386719 662.5 500zM662.5 500"/></g></svg>

<?xml version="1.0" encoding="UTF-8" standalone="no"?>
<svg
   xmlns:dc="http://purl.org/dc/elements/1.1/"
   xmlns:cc="http://creativecommons.org/ns#"
   xmlns:rdf="http://www.w3.org/1999/02/22-rdf-syntax-ns#"
   xmlns:svg="http://www.w3.org/2000/svg"
   xmlns="http://www.w3.org/2000/svg"
   xmlns:sodipodi="http://sodipodi.sourceforge.net/DTD/sodipodi-0.dtd"
   xmlns:inkscape="http://www.inkscape.org/namespaces/inkscape"
   width="1000px"
   height="1000px"
   version="1.1"
   id="svg7"
   sodipodi:docname="0096-sitelen.svg"
   inkscape:version="1.0.2-2 (e86c870879, 2021-01-15)">
  <metadata
     id="metadata13">
    <rdf:RDF>
      <cc:Work
         rdf:about="">
        <dc:format>image/svg+xml</dc:format>
        <dc:type
           rdf:resource="http://purl.org/dc/dcmitype/StillImage" />
      </cc:Work>
    </rdf:RDF>
  </metadata>
  <defs
     id="defs11" />
  <sodipodi:namedview
     pagecolor="#ffffff"
     bordercolor="#666666"
     borderopacity="1"
     objecttolerance="10"
     gridtolerance="10"
     guidetolerance="10"
     inkscape:pageopacity="0"
     inkscape:pageshadow="2"
     inkscape:window-width="893"
     inkscape:window-height="480"
     id="namedview9"
     showgrid="false"
     inkscape:zoom="0.24711111"
     inkscape:cx="500"
     inkscape:cy="500"
     inkscape:window-x="0"
     inkscape:window-y="0"
     inkscape:window-maximized="0"
     inkscape:current-layer="svg7" />
  <g
     id="g866">
    <path
       style="fill:none;stroke:#000000;stroke-width:50;stroke-linecap:round;stroke-linejoin:round;stroke-miterlimit:4;stroke-opacity:1"
       d="M 300,250 H 700 V 750 H 300 Z m 0,0"
       id="path2" />
    <path
       style="fill:#000000;fill-opacity:1;fill-rule:nonzero;stroke:none"
       d="m 550,499.996 c 0,27.61328 -22.38672,50 -50,50 -27.61328,0 -50,-22.38672 -50,-50 0,-27.61328 22.38672,-50 50,-50 27.61328,0 50,22.38672 50,50 z m -112.5,0 c 0,27.61328 -22.38672,50 -50,50 -27.61328,0 -50,-22.38672 -50,-50 0,-27.61328 22.38672,-50 50,-50 27.61328,0 50,22.38672 50,50 z m 225,0 c 0,27.61328 -22.38672,50 -50,50 -27.61328,0 -50,-22.38672 -50,-50 0,-27.61328 22.38672,-50 50,-50 27.61328,0 50,22.38672 50,50 z m 0,0"
       id="path4" />
  </g>
</svg>
